X: 530
T:Travers' reel #1
M:4/4
L:1/8
R:Reel
N:Posted to the woodenflute mailing list June 2002
Z:Andrew Pickering
K:G
ge|dGBA B2 AB|dBGB AGED|G2 (3Bcd egag|gedB A2 ge|
dGBA B2 AB|dBGB AGED|G2 (3Bcd eggf|1 gedB G2:|2 gedB G3 A||
Bd (3ddd edBd|edgd edgd|(3Bcd ef g3 f|gedB A2 GA|
(3Bcd (3Bcd ed (3Bcd|edgd edgd|(3Bcd ef g3 f|1 gedB G3 A:|2 gedB G2||
<end>
<start>
